images/ic_back_arrow.svg

<svg width="26" height="26" viewBox="0 0 26 26" fill="none" xmlns="http://www.w3.org/2000/svg">
<path d="M23.0909 12.0232H6.10356L10.157 7.66742C10.5121 7.28608 10.5121 6.66746 10.157 6.28618C9.80188 5.90461 9.22618 5.90461 8.87159 6.28618L3.26633 12.3093C2.91122 12.6906 2.91122 13.3093 3.26633 13.6905L8.87159 19.7139C9.04909 19.9047 9.28172 20 9.51429 20C9.74687 20 9.97949 19.9047 10.157 19.7139C10.5121 19.3325 10.5121 18.7139 10.157 18.3327L6.10356 13.9767H23.0909C23.5929 13.9767 24 13.5393 24 12.9999C24 12.4605 23.593 12.0232 23.0909 12.0232Z" fill="black"/>
</svg>

<svg xmlns="http://www.w3.org/2000/svg" fill="none" viewBox="0 0 26 26"><path d="M23.09 12.023H6.104l4.053-4.356a1.03 1.03 0 0 0 0-1.381c-.355-.382-.93-.382-1.285 0L3.267 12.31a1.03 1.03 0 0 0 0 1.381l5.605 6.023c.178.19.4.286.643.286s.465-.095.643-.286a1.03 1.03 0 0 0 0-1.381l-4.053-4.356H23.09c.502 0 .91-.437.91-.977s-.407-.977-.91-.977z" fill="#000"/></svg>
